fs/reading_mode_mobile_20_filled.svg

<svg viewBox="0 0 20 20" fill="none" xmlns="http://www.w3.org/2000/svg" height="1em" width="1em">
  <path d="M4 3.5C4 2.67157 4.67157 2 5.5 2H14.5C15.3284 2 16 2.67157 16 3.5V16.5C16 17.3284 15.3284 18 14.5 18H5.5C4.67157 18 4 17.3284 4 16.5V3.5ZM6 6.5C6 6.77614 6.22386 7 6.5 7H13.5C13.7761 7 14 6.77614 14 6.5C14 6.22386 13.7761 6 13.5 6H6.5C6.22386 6 6 6.22386 6 6.5ZM6.5 8C6.22386 8 6 8.22386 6 8.5C6 8.77614 6.22386 9 6.5 9H13.5C13.7761 9 14 8.77614 14 8.5C14 8.22386 13.7761 8 13.5 8H6.5ZM6 10.5C6 10.7761 6.22386 11 6.5 11H10.5C10.7761 11 11 10.7761 11 10.5C11 10.2239 10.7761 10 10.5 10H6.5C6.22386 10 6 10.2239 6 10.5Z" fill="#212121"/>
</svg>

<svg viewBox="0 0 20 20" fill="none" xmlns="http://www.w3.org/2000/svg" height="1em" width="1em">
  <path d="M4 3.5A1.5 1.5 0 0 1 5.5 2h9A1.5 1.5 0 0 1 16 3.5v13a1.5 1.5 0 0 1-1.5 1.5h-9A1.5 1.5 0 0 1 4 16.5v-13Zm2 3a.5.5 0 0 0 .5.5h7a.5.5 0 0 0 0-1h-7a.5.5 0 0 0-.5.5ZM6.5 8a.5.5 0 0 0 0 1h7a.5.5 0 0 0 0-1h-7ZM6 10.5a.5.5 0 0 0 .5.5h4a.5.5 0 0 0 0-1h-4a.5.5 0 0 0-.5.5Z" fill="#212121"/>
</svg>
